!!!!SEGMENT: pl-kk--kk-i-320--001_abersbach-jan-jiri--te-splendor-et-virtus-patris.krn
!!!cenid: 17xx:2120
!!!COM: Abersbach, Jan Jiří
!!!COM-rismID: pe30008165
!!!CDT: 1654-1704
!!!CNT: Czech
!!!OTL: Te splendor et virtus patris
!!!PDT:
!!!AGN: Sacred
!!!YEC: Copyright 2022 Narodowy Instytut Fryderyka Chopina (https://polishscores.org)
!!!YEM: License CC-BY-4.0 (https://creativecommons.org/licenses/by/4.0)
!!!SMS-siglum: PL-Kk
!!!SMS-shelfmark: Kk.I.320
!!!SMS-shelfwork: 001 W
!!!SMS-variant:
!!!SMS-altvar:
!!!NIFC-rismSourceID: 1001146211
!!!NIFC-rismChildID: 1001146214
!!!NIFC-islandoraID: pl-kk:5345
!!!URL-pdf-islandora: https://repozytorium.nifc.pl/islandora/object/pl-kk%3A5345/datastream/PDF/view
!!!URL-scan: https://polish.musicsources.pl/pl/lokalizacje/galeria/rekopisy/5939 @EN{Scan on Polish Music Sources Website} @PL{Skany w portalu Dziedzictwo Muzyki Polskiej w otwartym dostępie}
!!!IIIF:
!!!ONB-nifc: UWAGA: utwory w zbiorze: 1. Te splendor et virtus patris, 2. Sub tuum praesidium
!!!AIN: 1 alto 2 empty 1 tenor 1 vox
!!!key:
**kern	**text	**text	**kern	**text	**text	**fba	**kern	**text	**text	**kern	**text	**text	**kern	**text	**text
*part5	*	*	*part4	*	*	*	*part3	*	*	*part2	*	*	*part1	*	*
*staff5	*	*	*staff4	*	*	*	*staff3	*	*	*staff2	*	*	*staff1	*	*
*Iempty	*	*	*Iempty	*	*	*	*Itenor	*	*	*Ialto	*	*	*Ivox	*	*
*I"Baſso Ripieno.	*	*	*I"[Basso]	*	*	*	*I"[Tenore]	*	*	*I"[Alto]	*	*	*I"[Canto]	*	*
*I'B rip	*	*	*I'B	*	*	*	*I'T	*	*	*I'A	*	*	*I'S	*	*
*clefF4	*	*	*clefF4	*	*	*	*clefC4	*	*	*clefC3	*	*	*clefC1	*	*
*k[]	*	*	*k[]	*	*	*	*k[]	*	*	*k[]	*	*	*k[]	*	*
*d:	*	*	*d:	*	*	*	*d:	*	*	*d:	*	*	*d:	*	*
*M3/1	*	*	*M3/1	*	*	*	*M3/1	*	*	*M3/1	*	*	*M3/1	*	*
*rscale:1/2	*	*	*	*	*	*	*	*	*	*	*	*	*	*	*
*2\right	*	*	*	*	*	*	*	*	*	*	*	*	*	*	*
*	*v:1	*v:3	*	*v:1 	*v:3 	*	*	*v:1 	*v:3 	*	*v:1	*v:3	*	*v:1 	*v:3 
=1	=1	=1	=1	=1	=1	=1	=1	=1	=1	=1	=1	=1	=1	=1	=1
!LO:TX:t=P:problem=partia zapisana w metrum 3/2	!	!	!	!	!	!	!	!	!	!	!	!	!	!	!
1D/	Te	Dra-	1D	Te	Dra-	.	1A	Te	Dra-	1f	Te	Dra-	1dd	Te	Dra-
1.C#X	ſplen-	-co-	1.C#X	ſplen-	-co-	6	(2A/	ſplen-	-co-	1.e	ſplen-	-co-	1.ee	ſplen-	-co-
.	.	.	.	.	.	.	2G/)	.	.	.	.	.	.	.	.
.	.	.	.	.	.	.	(2A/	-dor	-nis	.	.	.	.	.	.
!	!	!	!	!	!	!	!	!	!	!LO:TX:a:t=P:problem=# above	!	!	!	!	!
!LO:TX:t=P:problem=kreska pseudotaktowa	!	!	!LO:TX:t=P:problem=kreska pseudotaktowa	!	!	!	!LO:TX:t=P:problem=kreska pseudotaktowa	!	!	!LO:TX:t=P:problem=kreska pseudotaktowa	!	!	!LO:TX:t=P:problem=kreska pseudotaktowa	!	!
2D/	-dor	-nis	2D/	-dor	-nis	.	2D/)	.	.	2f#X\	-dor	-nis	2dd\	-dor	-nis
=2	=2	=2	=2	=2	=2	=2	=2	=2	=2	=2	=2	=2	=2	=2	=2
(2BB-X/	et	hic	(2BB-X/	et	hic	.	(2G/	et	hic	0g	et	hic	1.dd	et	hic
2AA/)	.	.	2AA/)	.	.	.	2A/)	.	.	.	.	.	.	.	.
!	!	!	!	!	!	!	!LO:TX:a:t=P:problem=♭ above	!	!	!	!	!	!	!	!
(2G\	vir-	di-	(2G\	Vir-	di-	.	(2B-X/	Vir-	di-	.	.	.	.	.	.
2F\)	.	.	2F\)	.	.	.	2A/)	.	.	.	.	.	4cc\	.	.
.	.	.	.	.	.	.	.	.	.	.	.	.	4dd\	.	.
!LO:TX:t=P:problem=kreska pseudotaktowa	!	!	!LO:TX:t=P:problem=kreska pseudotaktowa	!	!	!	!	!	!	!LO:TX:t=P:problem=kreska pseudotaktowa	!	!	!LO:TX:t=P:problem=kreska pseudotaktowa	!	!
1E	-tus	.	1E	-t(us)	.	.	(2G/	-t(us)	-ru(m)	1g	Vir-	di-	1ee	.	.
!	!	!	!	!	!	!	!LO:TX:t=P:problem=kreska pseudotaktowa	!	!	!	!	!	!	!	!
.	.	.	.	.	.	.	2A/)	.	.	.	.	.	.	.	.
=3	=3	=3	=3	=3	=3	=3	=3	=3	=3	=3	=3	=3	=3	=3	=3
1F,	Pa-	-rum	1F	Pa-	-ru(m)	.	1F	Pa-	ca-	1f	-t(us)	-ru(m)	1dd	Vir-	di-
!	!	!	!	!	!	!	!LO:TX:t=P:problem=kreska pseudotaktowa	!	!	!LO:TX:t=P:problem=kreska pseudotaktowa	!	!	!	!	!
(1G	.	Ca-	1G	.	Ca-	.	0E	.	.	0e	Pa-	Ca-	1dd	-tus	-ru(m)
!LO:TX:t=P:problem=kreska pseudotaktowa	!	!	!LO:TX:t=P:problem=kreska pseudotaktowa	!	!	!	!	!	!	!	!	!	!LO:TX:t=P:problem=kreska pseudotaktowa	!	!
1A)	.	.	1A	.	.	.	.	.	.	.	.	.	1cc#X	Pa-	ca-
=4	=4	=4	=4	=4	=4	=4	=4	=4	=4	=4	=4	=4	=4	=4	=4
0D,	-tris	-put	0D	-tris	-put	.	0D,	-tris	-put	0f#X	-tris	-put	0dd,	-tris	-put
!LO:TX:t=P:problem=kreska pseudotaktowa	!	!	!LO:TX:t=P:problem=kreska pseudotaktowa	!	!	!	!LO:TX:t=P:problem=kreska pseudotaktowa	!	!	!LO:TX:t=P:problem=kreska pseudotaktowa	!	!	!LO:TX:t=P:problem=kreska pseudotaktowa	!	!
!	!	!	!LO:TX:t=De SS angelis V S Michaële.	!	!	!	!	!	!	!	!	!	!	!	!
1BBn	Te	in	1BBn	Te	in	.	1d	Te	in	1g#X	Te	in	1dd	Te	in
=5	=5	=5	=5	=5	=5	=5	=5	=5	=5	=5	=5	=5	=5	=5	=5
1.AA	vi-	i-	1.AA	Vi-	i-	.	1.c	Vi-	i-	1.a	Vi-	i-	1.ee	Vi-	i-
2BB/	-ta	-ma	2BB/	-ta	-ma	.	2d\	-ta	-ma	4g\	-ta	-ma	2dd\	-ta	-ma
.	.	.	.	.	.	.	.	.	.	4f\	.	.	.	.	.
!LO:TX:t=P:problem=kreska pseudotaktowa	!	!	!LO:TX:t=P:problem=kreska pseudotaktowa	!	!	!	!LO:TX:t=P:problem=kreska pseudotaktowa	!	!	!LO:TX:t=P:problem=kreska pseudotaktowa	!	!	!LO:TX:t=P:problem=kreska pseudotaktowa	!	!
!	!	!	!	!	!	!	!LO:TX:t=De S. Angelis V S. Michaele	!	!	!	!	!	!	!	!
1C	Je-	pel-	1C	Je-	pel-	.	1e	Je-	pel-	1e	Je-	pel-	1cc	Je-	pel-
=6	=6	=6	=6	=6	=6	=6	=6	=6	=6	=6	=6	=6	=6	=6	=6
1D	-su	-lit	1D	-ſu	-lit	.	2A\	-ſu	-lit	1a	-ſu	-lit	1ff	-ſu	-lit
.	.	.	.	.	.	.	2B\	.	.	.	.	.	.	.	.
1.E	cor-	tar-	1.E	Cor-	tar-	.	2c\	.	.	1.a	Cor-	tar-	1.ee	cor-	tar-
.	.	.	.	.	.	.	4B\	.	.	.	.	.	.	.	.
.	.	.	.	.	.	.	4A\	.	.	.	.	.	.	.	.
.	.	.	.	.	.	.	2.B\	Cor-	tar-	.	.	.	.	.	.
!LO:TX:t=P:problem=kreska pseudotaktowa	!	!	!LO:TX:t=P:problem=kreska pseudotaktowa	!	!	!	!	!	!	!LO:TX:t=P:problem=kreska pseudotaktowa	!	!	!LO:TX:t=P:problem=kreska pseudotaktowa	!	!
!	!	!	!	!	!	!	!	!	!	!LO:TX:t=De S angelis V S Michaele.	!	!	!LO:TX:t=De angelis V. S. Michaele.	!	!
2E\	-di-	-ta-	2E\	-di-	-ta-	.	.	.	.	2g#X\	-di-	-ta-	2dd\	-di-	-ta-
!	!	!	!	!	!	!	!LO:TX:t=P:problem=kreska pseudotaktowa	!	!	!	!	!	!	!	!
.	.	.	.	.	.	.	4B\	-di-	-ta-	.	.	.	.	.	.
=7	=7	=7	=7	=7	=7	=7	=7	=7	=7	=7	=7	=7	=7	=7	=7
1AA,	-um	-ra	0AA	-u(m)	-ra	.	0A,	-u(m)	-ra	0a	-u(m)	-ra	0cc#X,	-u(m)	-ra
1A	ab	du-	.	.	.	.	.	.	.	.	.	.	.	.	.
*custos:G	*	*	*	*	*	*	*	*	*	*	*	*	*	*	*
!LO:TX:t=P:problem=kreska pseudotaktowa	!	!	!	!	!	!	!	!	!	!	!	!	!	!	!
!	!	!	!LO:TX:t=P:problem=kreska pseudotaktowa	!	!	!	!LO:TX:t=P:problem=kreska pseudotaktowa	!	!	!LO:TX:t=P:problem=kreska pseudotaktowa	!	!	!LO:TX:t=P:problem=kreska pseudotaktowa	!	!
1F#X	.	.	1FF#X	ab	du-	.	1d	ab	Du-	1a	ab	du-	1dd	ab	Du-
=8	=8	=8	=8	=8	=8	=8	=8	=8	=8	=8	=8	=8	=8	=8	=8
!LO:LB:g=original	!	!	!	!	!	!	!	!	!	!LO:N:acc=-	!	!	!	!	!
1G	o-	-cem-	1GG	o-	-cem-	.	1B	o-	-ce(m)-	1gnX	o-	-ce(m)-	1dd	o-	-cem-
1G	-re,	-q(ue)	1GG	-re	-q(ue)	.	1B	-re	-q(ue)	1g	-re,	-q(ue)	1dd	-re	-q(ue)
!	!	!	!	!	!	!	!LO:TX:t=P:problem=kreska pseudotaktowa	!	!	!LO:TX:t=P:problem=kreska pseudotaktowa	!	!	!LO:TX:t=P:problem=kreska pseudotaktowa	!	!
2c\	ab	cum	(2C/	ab	du-	.	1G	qui	cu(m)	1e	ab	du-	1cc	qui	cu(m)
!LO:TX:t=P:problem=kreska pseudotaktowa	!	!	!LO:TX:t=P:problem=kreska pseudotaktowa	!	!	!	!	!	!	!	!	!	!	!	!
2Bn\	.	re-	2BB/)	.	.	.	.	.	.	.	.	.	.	.	.
=9	=9	=9	=9	=9	=9	=9	=9	=9	=9	=9	=9	=9	=9	=9	=9
!	!	!	!	!	!	!	!	!	!	!	!	!	!LO:TX:t=P:problem=kreska pseudotaktowa	!	!
2A\	o-	-bel-	2A\	o-	-ce(m)-	.	2c\	pen-	re-	1e	o-	-ce(m)-	0.cc	pen-	re-
!	!	!	!	!	!	!	!LO:TX:a:t=P:problem=♭ above	!	!	!	!	!	!	!	!
2G\	.	-li-	2G\	.	.	.	2B-X\	.	.	.	.	.	.	.	.
1.F#X,	-re	-bus	1.F#X	-re	-q(ue)	.	2A/	.	.	1.a	-re	-q(ue)	.	.	.
.	.	.	.	.	.	.	2G/	.	.	.	.	.	.	.	.
!	!	!	!	!	!	!	!LO:TX:t=P:problem=kreska pseudotaktowa	!	!	!	!	!	!	!	!
.	.	.	.	.	.	.	1A	.	.	.	.	.	.	.	.
!LO:TX:t=P:problem=kreska pseudotaktowa	!	!	!	!	!	!	!	!	!	!	!	!	!	!	!
!	!	!	!LO:TX:t=P:problem=kreska pseudotaktowa	!	!	!	!	!	!	!LO:TX:t=P:problem=kreska pseudotaktowa	!	!	!	!	!
2F#\	qui	re-	2F#\	qui	cum	.	.	.	.	2a\	qui	cu(m)	.	.	.
!	!	!	!LO:LB:g=original	!	!	!	!	!	!	!	!	!	!	!	!
=10	=10	=10	=10	=10	=10	=10	=10	=10	=10	=10	=10	=10	=10	=10	=10
1G	pen-	-bel-	1G	pen-	re-	.	1B-X	.	.	1g	pen-	re-	0dd	-dent	bel-
1D	-dent	.	1.D	-dent	-bel-	.	1A	-dent	-bel-	1.g	-dent	-bel-	.	.	.
!LO:TX:t=P:problem=kreska pseudotaktowa	!	!	!	!	!	!	!LO:TX:t=P:problem=kreska pseudotaktowa	!	!	!	!	!	!LO:TX:t=P:problem=kreska pseudotaktowa	!	!
1D	tu-	-li-	.	.	.	.	1A	tu	-li-	.	.	.	1a	tu-	-li-
!	!	!	!	!	!	!	!	!	!	!LO:TX:a:t=P:problem=# above	!	!	!	!	!
!	!	!	!LO:TX:t=P:problem=kreska pseudotaktowa	!	!	!	!	!	!	!LO:TX:t=P:problem=kreska pseudotaktowa	!	!	!	!	!
.	.	.	2D/	tu-	-li-	.	.	.	.	2f#X\	tu-	-li-	.	.	.
!	!	!	!	!	!	!	!	!LO:LB:g=original	!	!	!	!	!	!	!
=11	=11	=11	=11	=11	=11	=11	=11	=11	=11	=11	=11	=11	=11	=11	=11
0GG,	-o	-bus	0GG	-o	-b(us)	.	0G	-o	-bus	0g	-o	-b(us)	0b	-o	-b(us)
!LO:TX:t=P:problem=kreska pseudotaktowa	!	!	!LO:TX:t=P:problem=kreska pseudotaktowa	!	!	!	!LO:TX:t=P:problem=kreska pseudotaktowa	!	!	!LO:TX:t=P:problem=kreska pseudotaktowa	!	!	!LO:TX:t=P:problem=kreska pseudotaktowa	!	!
1G	Lau-	cae-	1GG	lau-	cae-	.	1B-X	lau-	Cae-	1g	lau-	Cae-	1dd	lau	Cae
!	!	!	!	!	!	!	!	!	!	!LO:LB:g=original	!	!	!LO:LB:g=original	!	!
=12	=12	=12	=12	=12	=12	=12	=12	=12	=12	=12	=12	=12	=12	=12	=12
1.G	-da-	-les-	1.G	-da-	-les-	.	1.B-X	-da-	-leſ-	1.g	-da-	-leſ-	1.dd	-da-	-leſ-
2G\	-mus	-ti	2G\	-m(us)	-ti	.	2A/	-m(us)	-ti	2f\	-m(us)	-ti	2dd,\	-m(us)	-ti
!LO:TX:t=P:problem=kreska pseudotaktowa	!	!	!LO:TX:t=P:problem=kreska pseudotaktowa	!	!	!	!LO:TX:t=P:problem=kreska pseudotaktowa	!	!	!LO:TX:t=P:problem=kreska pseudotaktowa	!	!	!LO:TX:t=P:problem=kreska pseudotaktowa	!	!
*	*ij	*	*	*	*	*	*	*	*	*	*	*	*	*	*
1C	lau-	ab	1C	lau-	ab	.	1G	lau-	ab	1e	lau-	ab	1cc	lau-	ab
=13	=13	=13	=13	=13	=13	=13	=13	=13	=13	=13	=13	=13	=13	=13	=13
1F	-da-	ar-	1F	-da-	ar-	.	1A	-da-	ar-	1f	-da-	ar-	1cc	-da-	ar-
1F,	-mus	-ce	1F	-m(us)	-ce	.	1A	-m(us)	-ce	1f	-m(us)	-ce	1cc	-m(us)	-ce
*	*Xij	*	*	*	*	*	*	*	*	*	*	*	*	*	*
!LO:TX:t=P:problem=kreska pseudotaktowa	!	!	!LO:TX:t=P:problem=kreska pseudotaktowa	!	!	!	!LO:TX:t=P:problem=kreska pseudotaktowa	!	!	!LO:TX:t=P:problem=kreska pseudotaktowa	!	!	!LO:TX:t=P:problem=kreska pseudotaktowa	!	!
*	*	*ij	*	*ij	*ij	*	*	*ij	*ij	*	*ij	*ij	*	*ij	*
1F	lau-	cae-	1F	lau-	cae-	.	1A	lau-	Cae-	1f	lau-	Cae-	1cc	lau-	cae-
=14	=14	=14	=14	=14	=14	=14	=14	=14	=14	=14	=14	=14	=14	=14	=14
1F	-da-	-les-	1FF	-da-	-les-	.	1A	-da-	-leſ-	1f	-da-	-leſ-	1.cc	-da-	-leſ-
1.G	-m(us)	-ti	1.GG	-m(us)	-ti	.	1.G	-m(us)	-ti	1.e	-m(us)	-ti	.	.	.
.	.	.	.	.	.	.	.	.	.	.	.	.	2cc\	-m(us)	-ti
!	!	!	!	!	!	!	!	!	!	!	!	!	!LO:TX:t=P:problem=kreska pseudotaktowa	!	!
.	.	.	.	.	.	.	.	.	.	.	.	.	1b	lau	ab
!LO:TX:t=P:problem=kreska pseudotaktowa	!	!	!LO:TX:t=P:problem=kreska pseudotaktowa	!	!	!	!LO:TX:t=P:problem=kreska pseudotaktowa	!	!	!LO:TX:t=P:problem=kreska pseudotaktowa	!	!	!	!	!
*	*ij	*	*	*	*	*	*	*	*	*	*	*	*	*	*
2GG/	lau-	ab	2GG/	lau-	ab	.	2F/	lau-	ab	2d\	lau-	ab	.	.	.
=15	=15	=15	=15	=15	=15	=15	=15	=15	=15	=15	=15	=15	=15	=15	=15
0AA	-da-	ar-	0AA	-da-	ar-	.	0E	-da-	ar-	0c#X	-da-	ar-	0a	-da-	ar-
!LO:TX:t=P:problem=kreska pseudotaktowa	!	!	!LO:TX:t=P:problem=kreska pseudotaktowa	!	!	!	!LO:TX:t=P:problem=kreska pseudotaktowa	!	!	!LO:TX:t=P:problem=kreska pseudotaktowa	!	!	!LO:TX:t=P:problem=kreska pseudotaktowa	!	!
1AA	-m(us)	-ce	1AA	-m(us)	ce	.	1E	-m(us)	-ce	1c#	-m(us)	-ce	1a	-m(us)	-ce
*	*Xij	*Xij	*	*	*	*	*	*	*	*	*	*Xij	*	*	*
=16	=16	=16	=16	=16	=16	=16	=16	=16	=16	=16	=16	=16	=16	=16	=16
!LO:LB:g=original	!	!	!	!	!	!	!	!	!	!LO:N:acc=♭	!	!	!	!	!
*	*	*	*	*	*	*	*	*	*	*	*	*	*	*	*ij
1F	lau-	cae-	1F	lau-	cae-	.	1A	lau-	Cae-	1cn	lau-	Cae-	1a	lau-	cae-
1E	-da-	-les-	1E	-da-	-les-	.	1B	-da-	-leſ-	1d	-da-	-leſ-	1.g	-da-	-leſ-
!	!	!	!	!	!	!	!LO:TX:a:t=P:problem=# above	!	!	!	!	!	!	!	!
!LO:TX:t=P:problem=kreska pseudotaktowa	!	!	!LO:TX:t=P:problem=kreska pseudotaktowa	!	!	!	!LO:TX:t=P:problem=kreska pseudotaktowa	!	!	!LO:TX:t=P:problem=kreska pseudotaktowa	!	!	!	!	!
1E	-m(us)	-ti	1E	-m(us)	-ti	.	1c#X	-m(us)/	-ti	1e	-m(us)	-ti	.	.	.
*	*	*	*	*Xij	*	*	*	*Xij	*	*	*Xij	*	*	*	*
!	!	!	!	!	!	!	!	!	!	!	!	!	!LO:TX:t=P:problem=kreska pseudotaktowa	!	!
.	.	.	.	.	.	.	.	.	.	.	.	.	2g/	-m(us)	-ti
*	*	*	*	*	*	*	*	*	*	*	*	*	*	*Xij	*
=17	=17	=17	=17	=17	=17	=17	=17	=17	=17	=17	=17	=17	=17	=17	=17
*	*	*	*	*	*	*	*	*	*	*	*	*	*lig	*	*
(2D/	in-	ab	2D/	in-	ab	.	(2d\	in-	ab	2f\	in-	ab	1a	in-	ab
2C/)	.	.	2C/	.	.	.	2c\)	.	.	2e\	.	.	.	.	.
1BB-X	.	ar-	1BB-X	.	ar-	.	2d\	.	ar-	2f\	.	.	1b	.	ar-
.	.	.	.	.	.	.	2e\	.	.	2g\	.	.	.	.	.
*	*	*	*	*	*	*	*	*	*	*	*	*	*Xlig	*	*
!LO:TX:t=P:problem=kreska pseudotaktowa	!	!	!LO:TX:t=P:problem=kreska pseudotaktowa	!	!	!	!	!	!	!	!	!	!	!	!
1F,	-ter	-ce	1FF	-ter	-ce	.	1f	.	-ce	1a	.	ar-	1a	-ter	.
*	*	*	*	*	*Xij	*	*	*	*Xij	*	*	*	*	*	*
=18	=18	=18	=18	=18	=18	=18	=18-	=18	=18	=18-	=18	=18	=18-	=18	=18
1G	an-	ful-	1GG	An-	Ful-	.	1d	-ter	Ful-	1f	-ter	-ce	1b	.	-ce
*	*	*	*	*	*	*	*	*	*	*	*	*	*	*	*Xij
1.A	.	.	1.AA	.	.	.	1.d	an-	.	1.f	an-	ful-	1.a	Cae-	ful-
!LO:TX:t=P:problem=kreska pseudotaktowa	!	!	!	!	!	!	!LO:TX:b:t=P:problem=# below	!	!	!LO:TX:b:t=P:problem=# below	!	!	!	!	!
2AA/	-ge-	-mi-	2AA/	-ge-	-mi-	.	2c#X\	-ge-	-mi-	2e\	-ge-	-mi-	2a\	-li-	-mi-
=19	=19	=19	=19	=19	=19	=19	=19	=19	=19	=19	=19	=19	=19-	=19	=19
!	!	!	!	!	!	!	!	!	!	!LO:TX:t=P:problem=podwójna fermata powyżej i poniżej	!	!	!LO:TX:t=P:problem=podwójna kreska pseudotaktowa	!	!
!LO:TX:t=P:problem=podwójna kreska pseudotaktowa	!	!	!LO:TX:t=P:problem=podwójna kreska pseudotaktowa	!	!	!	!LO:TX:t=P:problem=podwójna kreska pseudotaktowa	!	!	!LO:TX:t=P:problem=podwójna kreska pseudotaktowa	!	!	!LO:TX:t=P:problem=podwójna fermata powyżej i poniżej	!	!
0.D	-los.	-nat.	0.D	-los	-nat	.	0.d;	-los	-nat	0.f#X;	-los	-nat.	0.a;	-tes	-nat
=20||	=20||	=20||	=20||	=20||	=20||	=20||	=20||	=20||	=20||	=20||	=20||	=20||	=20||	=20||	=20||
*M3/1	*	*	*M3/1	*	*	*	*M3/1	*	*	*M3/1	*	*	*M3/1	*	*
*	*v:2	*v:4	*	*v:2 	*v:4 	*	*	*v:2 	*v:4 	*	*v:2 	*v:4 	*	*v:2 	*v:4 
0D	Ti-	Con-	0D	Ti-	Con-	.	0c	Ti-	Con-	0f#X	Ti-	Con-	0a	Ti-	Con-
!LO:TX:t=P:problem=kreska pseudotaktowa	!	!	!LO:TX:t=P:problem=kreska pseudotaktowa	!	!	!	!LO:TX:t=P:problem=kreska pseudotaktowa	!	!	!LO:TX:t=P:problem=kreska pseudotaktowa	!	!	!LO:TX:t=P:problem=kreska pseudotaktowa	!	!
1D	-bi	-tra	1D	-bi	-tra	.	1d	-bi	-tra	1f#	-bi	-tra	1a	-bi	-tra
=21	=21	=21	=21	=21	=21	=21	=21	=21	=21	=21	=21	=21	=21	=21	=21
2G\	mil-	Du-	2.G\	Mil-	Du-	.	1D	mil-	Du-	1.g	mil-	Du-	1b-X	mil-	du-
2G\	-le	-cem	.	.	.	.	.	.	.	.	.	.	.	.	.
.	.	.	4G\	-le	-ce(m)	.	.	.	.	.	.	.	.	.	.
1G	den-	su-	1G	den-	ſu-	.	2G/	-le	.	.	.	.	1b-	-le	-ce(m)
.	.	.	.	.	.	.	2G/	den-	-ce(m)	2g\	-le	-ce(m)	.	.	.
*	*	*	*	*	*	*	*custos:B-	*	*	*custos:d	*	*	*	*	*
!	!	!	!	!	!	!	!LO:TX:t=P:problem=kreska pseudotaktowa	!	!	!LO:TX:t=P:problem=kreska pseudotaktowa	!	!	!	!	!
!LO:TX:t=P:problem=kreska pseudotaktowa	!	!	!LO:TX:a:t=P:problem=# above	!	!	!	!	!	!	!	!	!	!LO:TX:t=P:problem=kreska pseudotaktowa	!	!
1F#X	-ſa	.	1F#X	-ſa	.	.	1A	-ſa	ſu-	1d	den-	ſu-	1a	den-	ſu-
!	!	!	!LO:LB:g=original	!	!	!	!	!LO:LB:g=original	!	!	!LO:LB:g=original	!	!	!	!
=22	=22	=22	=22	=22	=22	=22	=22	=22	=22	=22	=22	=22	=22	=22	=22
0G	mil-	-per-	0G	mil-	-per-	.	0B-X	mil-	-per-	1d	-ſa	.	1a	-ſa	-per-
.	.	.	.	.	.	.	.	.	.	1.d	mil-	-per-	2g/	mil-	.
.	.	.	.	.	.	.	.	.	.	.	.	.	2f/	.	.
!LO:TX:t=P:problem=kreska pseudotaktowa	!	!	!LO:TX:t=P:problem=kreska pseudotaktowa	!	!	!	!LO:TX:t=P:problem=kreska pseudotaktowa	!	!	!	!	!	!	!	!
1G	-li-	-bi-	1G	-li-	-bi-	.	1B-	-li-	-bi-	.	.	.	2.g/	.	.
!	!	!	!	!	!	!	!	!	!	!LO:TX:t=P:problem=kreska pseudotaktowa	!	!	!	!	!
.	.	.	.	.	.	.	.	.	.	2d\	-li-	-bi-	.	.	.
!	!	!	!	!	!	!	!	!	!	!	!	!	!LO:TX:t=P:problem=kreska pseudotaktowa	!	!
.	.	.	.	.	.	.	.	.	.	.	.	.	4g/	-li-	-bi-
!	!	!	!	!	!	!	!	!	!	!	!	!	!LO:LB:g=original	!	!
=23	=23	=23	=23	=23	=23	=23	=23	=23	=23	=23	=23	=23	=23	=23	=23
0D,	-um	-ae	0D	-u(m)	-ae	.	0A	-u(m)	-ae	0d	-u(m)	-ae	0f#X	-um	-ae
!LO:TX:t=P:problem=kreska pseudotaktowa	!	!	!LO:TX:t=P:problem=kreska pseudotaktowa	!	!	!	!LO:TX:t=P:problem=kreska pseudotaktowa	!	!	!LO:TX:t=P:problem=kreska pseudotaktowa	!	!	!LO:TX:t=P:problem=kreska pseudotaktowa	!	!
1D	Du-	se-	1D	Du-	ſe-	.	1A	Du-	ſe-	1d	Du-	ſe-	1a	Du-	ſe-
=24	=24	=24	=24	=24	=24	=24	=24	=24	=24	=24	=24	=24	=24	=24	=24
!LO:LB:g=original	!	!	!	!	!	!	!	!	!	!	!	!	!	!	!
1.AA	-cum	-qua-	1.AA	-cu(m)	-qua-	.	1.A	-cu(m)	-qua-	1.c	-cu(m)	-qua-	1.cc	-cu(m)	-qua-
2AA/	Co-	-mur	2AA/	Co-	-m(ur)	.	2A/	co-	-m(ur)	2f\	co-	-mur	2cc\	co-	-mur
!	!	!	!LO:TX:t=P:problem=kreska pseudotaktowa	!	!	!	!	!	!	!	!	!	!	!	!
!LO:TX:t=P:problem=kreska pseudotaktowa	!	!	!LO:TX:a:t=P:problem=♭ above	!	!	!	!LO:TX:t=P:problem=kreska pseudotaktowa	!	!	!	!	!	!LO:TX:t=P:problem=kreska pseudotaktowa	!	!
1BB-X	-ro-	hunc	1BB-X	-ro-	hünc	.	1d	-ro-	hunc	(2d\	-ro-	hunc	1b-X	-ro-	hunc
!	!	!	!	!	!	!	!	!	!	!LO:TX:t=P:problem=kreska pseudotaktowa	!	!	!	!	!
.	.	.	.	.	.	.	.	.	.	2e\)	.	.	.	.	.
=25	=25	=25	=25	=25	=25	=25	=25	=25	=25	=25	=25	=25	=25	=25	=25
1D	-na	nos	1D	-na	Nos	.	1d	-na	Nos	1f,	-na	nos	1a	-na	nos
1.C	mi-	Prin-	1.C	mi-	Prin-	.	1.G	Mi-	Prin-	1.f	mi-	Prin-	1.cc	mi-	Prin-
!LO:TX:t=P:problem=kreska pseudotaktowa	!	!	!LO:TX:t=P:problem=kreska pseudotaktowa	!	!	!	!LO:TX:t=P:problem=kreska pseudotaktowa	!	!	!LO:TX:t=P:problem=kreska pseudotaktowa	!	!	!LO:TX:t=P:problem=kreska pseudotaktowa	!	!
2C/	-li-	-ci-	2C/	-li-	-ci-	.	2G/	-li-	-ci-	2e\	-li-	-ci-	2b\	-li-	-ci-
=26	=26	=26	=26	=26	=26	=26	=26	=26	=26	=26	=26	=26	=26	=26	=26
0F,	-at	-pem	0FF	-tat	-pe(m)	.	0A	-tat	-pe(m)	0f	-tat	-pe(m)	0cc,	-tat	-pe(m)
!LO:TX:t=P:problem=kreska pseudotaktowa	!	!	!LO:TX:t=P:problem=kreska pseudotaktowa	!	!	!	!LO:TX:t=P:problem=kreska pseudotaktowa	!	!	!LO:TX:t=P:problem=kreska pseudotaktowa	!	!	!LO:TX:t=P:problem=kreska pseudotaktowa	!	!
1F	sed	ut	1F	ſed	Ut	.	1A	ſed	ut	1f	ſed	Ut	1cc	ſed	ut
=27	=27	=27	=27	=27	=27	=27	=27	=27	=27	=27	=27	=27	=27	=27	=27
1.F	ex-	de-	1.F	ex-	de-	.	1.A	ex-	de-	1.f	ex-	de-	1cc	ex-	de-
.	.	.	.	.	.	.	.	.	.	.	.	.	1dd	-pli-	-t(ur)
2F\	-pli-	-tur	2F\	-pli-	-t(ur)	.	2B\	-pli-	-t(ur)	2f\	-pli-	-t(ur)	.	.	.
!LO:TX:t=P:problem=kreska pseudotaktowa	!	!	!	!	!	!	!LO:TX:t=P:problem=kreska pseudotaktowa	!	!	!LO:TX:t=P:problem=kreska pseudotaktowa	!	!	!LO:TX:t=P:problem=kreska pseudotaktowa	!	!
1E	-cat	ex	1E	-cat	ex	.	1c	-cat	ex	1g	-cat	ex	1cc	-cat	ex
=28	=28	=28	=28-	=28	=28	=28	=28	=28	=28	=28	=28	=28	=28	=28	=28
0D	Vic-	a-	0D	Vic-	a-	.	0d	Vic-	a-	0f	Vic-	a-	0cc	Vic-	a-
!LO:TX:t=P:problem=kreska pseudotaktowa	!	!	!LO:TX:t=P:problem=kreska pseudotaktowa	!	!	!	!LO:TX:t=P:problem=kreska pseudotaktowa	!	!	!LO:TX:t=P:problem=kreska pseudotaktowa	!	!	!LO:TX:t=P:problem=kreska pseudotaktowa	!	!
1G	-tor	-gni	1G	-tor	-gni	.	1d	-tor	-gni	1f	-tor	-gni	1b	-tor	-gni
=29	=29	=29	=29	=29	=29	=29	=29	=29	=29	=29	=29	=29	=29	=29	=29
1C	cru-	thro-	1C	Cru-	thro-	.	1e	Cru-	thro-	1e	Cru-	thro-	1cc	Cru-	thro-
1C,	-cem	-no	1C	-ce(m)	-no	.	1e	-ce(m)	-no	1e,	-ce(m)	-no	1cc	-ce(m)	-no
!LO:TX:t=P:problem=kreska pseudotaktowa	!	!	!LO:TX:t=P:problem=kreska pseudotaktowa	!	!	!	!LO:TX:t=P:problem=kreska pseudotaktowa	!	!	!LO:TX:t=P:problem=kreska pseudotaktowa	!	!	!LO:TX:t=P:problem=kreska pseudotaktowa	!	!
*	*	*	*	*	*	*	*	*ij	*ij	*	*ij	*ij	*	*ij	*ij
1C	sed	ut	1C	/ſed	/Ut	.	1e	ſed	ut	1e	ſed	ut	1cc	ſed	ut
=30	=30	=30	=30	=30	=30	=30	=30	=30	=30	=30	=30	=30	=30	=30	=30
1.C	ex-	de-	1.C	ex-	de-	.	1.G	ex-	de-	1e	ex-	de-	1.cc	ex-	de-
.	.	.	.	.	.	.	.	.	.	1f#X	-pli-	-t(ur)	.	.	.
2C/	-pli-	-tur	2C/	-pli-	-t(ur)	.	2A\	-pli-	-t(ur)	.	.	.	2cc\	-pli-	-t(ur)
!LO:TX:t=P:problem=kreska pseudotaktowa	!	!	!LO:TX:t=P:problem=kreska pseudotaktowa	!	!	!	!LO:TX:t=P:problem=kreska pseudotaktowa	!	!	!LO:TX:t=P:problem=kreska pseudotaktowa	!	!	!LO:TX:t=P:problem=kreska pseudotaktowa	!	!
1BB-X	-cat	ex	1BB-X	-cat	ex	.	1B-X	-cat	ex	1g	-cat	ex	1dd	-cat	ex
=31	=31	=31	=31	=31	=31	=31	=31	=31	=31	=31	=31	=31	=31	=31	=31
0AA	vic-	a-	0AA	Vic-	a-	.	0c	Vic-	A-	0g	Vic-	a-	0cc	Vic-	a-
!	!	!	!	!	!	!	!	!	!	!LO:TX:a:t=P:problem=# above	!	!	!	!	!
!LO:TX:t=P:problem=kreska pseudotaktowa	!	!	!LO:TX:t=P:problem=kreska pseudotaktowa	!	!	!	!LO:TX:t=P:problem=kreska pseudotaktowa	!	!	!LO:TX:t=P:problem=kreska pseudotaktowa	!	!	!LO:TX:t=P:problem=kreska pseudotaktowa	!	!
1D	-tor	-gni	1D	-tor	-gni	.	1c	-tor	-gni	1f#X	-tor	-gni	1a	-tor	-gni
=32	=32	=32	=32	=32	=32	=32	=32	=32	=32	=32	=32	=32	=32	=32	=32
0G	Cru-	thro-	0GG	Cru-	thro-	.	0d	Cru-	thro-	0g	Cru-	thro-	0b	Cru-	thro-
!LO:TX:t=P:problem=kreska pseudotaktowa	!	!	!LO:TX:t=P:problem=kreska pseudotaktowa	!	!	!	!LO:TX:t=P:problem=kreska pseudotaktowa	!	!	!LO:TX:t=P:problem=kreska pseudotaktowa	!	!	!LO:TX:t=P:problem=kreska pseudotaktowa	!	!
1GG	-cem	-no	1GG	-ce(m)/	-no/	.	1d	-ce(m)	-no	1g	-ce(m)	-no	1b	-ce(m)	-no
*	*	*	*	*	*	*	*	*Xij	*Xij	*	*Xij	*Xij	*	*Xij	*Xij
=33	=33	=33	=33	=33	=33	=33	=33	=33	=33	=33	=33	=33	=33	=33	=33
!LO:LB:g=original	!	!	!	!	!	!	!	!	!	!	!	!	!	!	!
1G	Mi-	no-	1G	Mi-	No-	.	1B	Mi-	No-	1g	Mi-	No-	1dd	Mi-	No-
1F	-cha-	.	1F	-cha-	.	.	1A	-cha-	.	1d	-cha-	.	1dd	-cha-	.
2E,\	-el	-bis	2.E\	-el	-bis	.	2.G/	-el	-bis	2.e\	-el	-bis	2cc#X\	-el	-bis
!	!	!	!	!	!	!	!	!	!	!	!	!	!LO:TX:t=P:problem=kreska pseudotaktowa	!	!
!	!	!	!	!	!	!	!	!	!	!	!	!	!LO:TX:t=P:problem=# above	!	!
2E\	sa-	.	.	.	.	.	.	.	.	.	.	.	2cc#\	ſa-	co-
*	*	*	*	*	*	*	*	*	*	*custos:f	*	*	*	*	*
*	*	*	*custos:D	*	*	*	*	*	*	*	*	*	*	*	*
!	!	!	!LO:TX:t=P:problem=kreska pseudotaktowa	!	!	!	!	!	!	!	!	!	!	!	!
!LO:TX:t=P:problem=kreska pseudotaktowa	!	!	!	!	!	!	!LO:TX:t=P:problem=kreska pseudotaktowa	!	!	!LO:TX:t=P:problem=kreska pseudotaktowa	!	!	!	!	!
!	!	!	!	!	!	!	!	!	!	!LO:LB:g=original	!	!	!	!	!
.	.	Co-	4E\	Sa-	Co-	.	4G/	ſa-	Co-	4e\	ſa-	Co-	.	.	.
=34	=34	=34	=34	=34	=34	=34	=34	=34	=34	=34	=34	=34	=34	=34	=34
0D	-lu-	-ro-	0D	-lu-	-ro-	.	0A	-lu-	-ro-	0f	-lu-	-ro-	0dd	-lu-	-ro-
!LO:TX:t=P:problem=kreska pseudotaktowa	!	!	!LO:TX:t=P:problem=kreska pseudotaktowa	!	!	!	!LO:TX:t=P:problem=kreska pseudotaktowa	!	!	!LO:TX:t=P:problem=kreska pseudotaktowa	!	!	!LO:TX:t=P:problem=kreska pseudotaktowa	!	!
1D	-tis	-na	1D	-tis	-na	.	1A	-tis	-na	1f	-tis	-na	1dd	-tis	-na
!	!	!	!	!	!	!	!	!LO:LB:g=original	!	!	!	!	!	!LO:LB:g=original	!
=35	=35	=35	=35	=35	=35	=35	=35	=35	=35	=35	=35	=35	=35	=35	=35
!	!	!	!	!	!	!	!LO:TX:a:t=a.	!	!	!	!	!	!	!	!
*	*ij	*ij	*	*ij	*ij	*	*	*ij	*ij	*	*	*ij	*	*ij	*ij
1F	Mi-	no-	1F	Mi-	no-	.	1A	ſa-	No-	1f	Mi-	No-	1cc	Mi-	No-
1E	-cha-	.	1E	-cha-	.	.	1G	-lu-	.	1c	-cha-	.	1cc	-cha-	.
!	!	!	!LO:TX:t=P:problem=kreska pseudotaktowa	!	!	!	!LO:TX:t=P:problem=kreska pseudotaktowa	!	!	!LO:TX:t=P:problem=kreska pseudotaktowa	!	!	!LO:TX:t=P:problem=kreska pseudotaktowa	!	!
2D,\	-el	-bis	1D	-el	-bis	.	1F	-tis	-bis	1d	-el	-bis	1b	-el	-bis
!LO:TX:t=P:problem=kreska pseudotaktowa	!	!	!	!	!	!	!	!	!	!	!	!	!	!	!
2D\	sa-	Co-	.	.	.	.	.	.	.	.	.	.	.	.	.
=36	=36	=36	=36	=36	=36	=36	=36	=36	=36	=36	=36	=36	=36	=36	=36
(1.C	-lu-	-ro-	1.C	Sa-	Co-	.	0G	ſa-	Co-	2e\	ſa-	Co-	1cc	ſa-	Co-
.	.	.	.	.	.	.	.	.	.	2f\	.	.	.	.	.
.	.	.	.	.	.	.	.	.	.	2e\	.	.	1g	-lu-	-ro-
2D\)	.	.	2D\	-lu-	-ro-	.	.	.	.	2f\	.	.	.	.	.
!LO:TX:t=P:problem=kreska pseudotaktowa	!	!	!LO:TX:t=P:problem=kreska pseudotaktowa	!	!	!	!LO:TX:t=P:problem=kreska pseudotaktowa	!	!	!LO:TX:t=P:problem=kreska pseudotaktowa	!	!	!LO:TX:t=P:problem=kreska pseudotaktowa	!	!
1E	-tis	-na	1E	-tis	-na	.	1G	-lu-	-ro-	1g	-lu-	-ro-	1cc	-tis	-na
*	*Xij	*Xij	*	*Xij	*Xij	*	*	*	*	*	*	*	*	*Xij	*Xij
=37	=37	=37	=37	=37	=37	=37	=37	=37	=37	=37	=37	=37	=37	=37	=37
1F	Si-	glo-	1F	.	.	.	1c	-tis	-na/	1a	-tis	-na	0cc	ſig-	glo-
*	*	*	*	*	*	*	*	*Xij	*Xij	*	*	*Xij	*	*	*
1.G	.	.	1.G	ſig-	glo-	.	1.G	ſig-	glo-	1.d	ſig-	glo-	.	.	.
!	!	!	!	!	!	!	!	!	!	!	!	!	!LO:TX:t=P:problem=kreska pseudotaktowa	!	!
.	.	.	.	.	.	.	.	.	.	.	.	.	1b	-ni-	-ri-
!LO:TX:t=P:problem=kreska pseudotaktowa	!	!	!LO:TX:t=P:problem=kreska pseudotaktowa	!	!	!	!LO:TX:t=P:problem=kreska pseudotaktowa	!	!	!LO:TX:t=P:problem=kreska pseudotaktowa	!	!	!	!	!
2GG/	-gni-	-ri-	2G\	-ni-	-ri-	.	2G/	-ni-	-ri-	2d\	-ni-	-ri-	.	.	.
=38	=38	=38	=38	=38	=38	=38	=38	=38	=38	=38	=38	=38	=38	=38	=38
2C,/	-fer	-ae	2C/	-fer	-ae	.	2G/	-fer	-ae	2e\	-fer	-ae	2cc\	-fer	-ae
2c\	Mi-	no-	2c\	Mi-	No-	.	2G/	Mi-	No-	2e\	Mi-	No-	2cc\	Mi-	no-
1B-X	-cha-	-bis	1B-X	-cha-	-bis	.	1G	-cha-	-bis	1e	-cha-	-bis	1dd	-cha-	-bis
!	!	!	!	!	!	!	!	!	!	!LO:TX:t=P:problem=kreska pseudotaktowa	!	!	!	!	!
!	!	!	!	!	!	!	!LO:TX:t=P:problem=kreska pseudotaktowa	!	!	!LO:TX:a:t=P:problem=# above	!	!	!LO:TX:t=P:problem=kreska pseudotaktowa	!	!
2.A\	-el	.	2.A\	-el	.	.	1A	-ël	Co-	1f#X	-el	Co-	1cc	-el	Co-
*	*	*	*custos:D	*	*	*	*	*	*	*	*	*	*	*	*
!LO:TX:t=P:problem=kreska pseudotaktowa	!	!	!LO:TX:t=P:problem=kreska pseudotaktowa	!	!	!	!	!	!	!	!	!	!	!	!
4A\	sa-	co-	4A\	Sa-	Co-	.	.	.	.	.	.	.	.	.	.
=39	=39	=39	=39	=39	=39	=39	=39	=39	=39	=39	=39	=39	=39	=39	=39
!	!	!	!LO:LB:g=original	!	!	!	!	!	!	!	!	!	!	!	!
0G	-lu-	-ro-	0G	-lu-	-ro-	.	1B-X	ſa-	-ro-	0g	ſa-	-ro-	0b-X	ſa-	-ro-
!	!	!	!	!	!	!	!LO:TX:t=P:problem=kreska pseudotaktowa	!	!	!	!	!	!	!	!
.	.	.	.	.	.	.	0B-	-lu-	-na	.	.	.	.	.	.
!LO:TX:t=P:problem=kreska pseudotaktowa	!	!	!LO:TX:t=P:problem=kreska pseudotaktowa	!	!	!	!	!	!	!LO:TX:t=P:problem=kreska pseudotaktowa	!	!	!LO:TX:t=P:problem=kreska pseudotaktowa	!	!
1G	-tis	-na	1G	-tis	-na	.	.	.	.	1g	-lu-	-na	1b-	-lu-	-na
=40	=40	=40	=40	=40	=40	=40	=40	=40	=40	=40	=40	=40	=40	=40	=40
!LO:LB:g=original	!	!	!	!	!	!	!	!	!	!	!	!	!	!	!
*	*	*	*	*ij	*ij	*	*	*	*ij	*	*	*	*	*	*
1G	Mi-	no-	1G	Mi-	No-	.	2B\	tis	glo-	1d	-tis	No-	1b	-tis	no-
*	*	*	*	*	*	*	*	*ij	*	*	*	*	*	*	*
.	.	.	.	.	.	.	2B\	Mi-	-ri-	.	.	.	.	.	.
1F	-cha-	-bis	1F	-cha-	-bis	.	1A	-cha-	-ae	1d	Mi-	-bis	1b	Mi-	-bis
!	!	!	!LO:TX:t=P:problem=kreska pseudotaktowa	!	!	!	!LO:TX:t=P:problem=kreska pseudotaktowa	!	!	!LO:TX:t=P:problem=kreska pseudotaktowa	!	!	!LO:TX:t=P:problem=kreska pseudotaktowa	!	!
2E\	.	.	1E	-el	Co-	.	1G	-ël	No-	1e	-cha-	Co-	1cc	-cha-	co-
!LO:TX:t=P:problem=kreska pseudotaktowa	!	!	!	!	!	!	!	!	!	!	!	!	!	!	!
2E\	-el	Co-	.	.	.	.	.	.	.	.	.	.	.	.	.
=41	=41	=41	=41	=41	=41	=41	=41	=41	=41	=41	=41	=41	=41	=41	=41
1.D	sa-	-ro-	1.D	Sa-	-ro-	.	1.F	ſa-	-bis	1.f	-el	-ro-	1.dd	-el	-ro-
2E\	-lu-	.	2E\	-lu-	.	.	2G/	-lu-	Co-	2f\	ſa-	.	2dd\	ſa-	.
2F\	.	.	2F\	.	.	.	2A/	.	.	2e\	.	.	2cc\	.	.
!LO:TX:t=P:problem=kreska pseudotaktowa	!	!	!LO:TX:t=P:problem=kreska pseudotaktowa	!	!	!	!LO:TX:t=P:problem=kreska pseudotaktowa	!	!	!LO:TX:t=P:problem=kreska pseudotaktowa	!	!	!LO:TX:t=P:problem=kreska pseudotaktowa	!	!
2G\	.	.	2G\	.	.	.	2B/	.	.	2d\	.	.	2b\	.	.
=42	=42	=42	=42	=42	=42	=42	=42	=42	=42	=42	=42	=42	=42	=42	=42
1A	.	.	1A	.	.	.	1c	.	-ro-	1.c	.	.	1.a	lu-	.
1A,	-[tis]	-[na]	1A	-tis	-na	.	1c	-tis	-na	.	.	.	.	.	.
*	*	*	*	*Xij	*ij	*	*	*Xij	*Xij	*	*	*	*	*	*
.	.	.	.	.	.	.	.	.	.	2d\	.	.	2b\	.	.
!LO:TX:t=P:problem=kreska pseudotaktowa	!	!	!LO:TX:t=P:problem=kreska pseudotaktowa	!	!	!	!LO:TX:t=P:problem=kreska pseudotaktowa	!	!	!	!	!	!	!	!
1A	sa-	Co-	1A	Sa-	Co-	.	1c	ſa-	Co-	2e\	.	.	2cc\	-tis	.
!	!	!	!	!	!	!	!	!	!	!LO:TX:t=P:problem=kreska pseudotaktowa	!	!	!LO:TX:t=P:problem=kreska pseudotaktowa	!	!
.	.	.	.	.	.	.	.	.	.	2f\	.	.	2dd\	.	.
=43	=43	=43	=43	=43	=43	=43	=43	=43	=43	=43	=43	=43	=43	=43	=43
1.E	-lu-	-ro-	1.E	-lu-	-ro-	.	1.G	-lu-	-ro-	1.g	lu-	.	1.ee	ſa-	.
2F\	.	.	2F\	.	.	.	2A/	.	.	4f\	.	.	4dd\	.	.
.	.	.	.	.	.	.	.	.	.	4e\	.	.	4cc\	.	.
!	!	!	!	!	!	!	!LO:TX:a:t=P:problem=♭ above	!	!	!	!	!	!	!	!
!LO:TX:t=P:problem=kreska pseudotaktowa	!	!	!LO:TX:t=P:problem=kreska pseudotaktowa	!	!	!	!LO:TX:t=P:problem=kreska pseudotaktowa	!	!	!LO:TX:t=P:problem=kreska pseudotaktowa	!	!	!LO:TX:t=P:problem=kreska pseudotaktowa	!	!
1G	.	.	1G	.	.	.	1Bn	.	.	1d	.	.	1b	lu-	.
=44	=44	=44	=44	=44	=44	=44	=44	=44	=44	=44	=44	=44	=44	=44	=44
1F	-tis	-na	1F	-tis	-na	.	1A	-tiſ	-na	1f	-tis	-na	1dd	-tiſ	-[n]a
1.A	Sig-	glo-	1.A	Sig-	glo-	.	1.A	ſig-	glo-	1.e	ſig-	glo-	1.dd	ſig-	glo-
*	*	*	*custos:D	*	*	*	*	*	*	*	*	*	*	*	*
!	!	!	!LO:TX:t=P:problem=kreska pseudotaktowa	!	!	!	!	!	!	!	!	!	!LO:TX:a:t=P:problem=# above	!	!
!LO:TX:t=P:problem=kreska pseudotaktowa	!	!	!	!	!	!	!LO:TX:t=P:problem=kreska pseudotaktowa	!	!	!LO:TX:t=P:problem=kreska pseudotaktowa	!	!	!LO:TX:t=P:problem=kreska pseudotaktowa	!	!
2AA/	-ni-	-ri-	2A\	-ni-	-ri-	.	2A/	-ni-	-ri-	2e\	-ni-	-ri-	2cc#X\	-ni-	-ri-
!	!	!	!LO:SIC:vcustos:D	!	!	!	!	!	!	!	!	!	!	!	!
=45	=45	=45	=45	=45	=45	=45	=45	=45	=45	=45	=45	=45	=45	=45	=45
!	!	!	!LO:LB:g=original	!	!	!	!	!	!	!LO:TX:a:t=P:problem=# above	!	!	!	!	!
0D,	-fer	-ae	0D	-fer	-ae	.	0A,	-fer	-ae	0f#X	-fer	-ae	0dd	-fer	-ae
!	!	!	!LO:TX:t=P:problem=kreska pseudotaktowa	!	!	!	!	!	!	!LO:N:acc=♭	!	!	!	!	!
!LO:TX:t=P:problem=kreska pseudotaktowa	!	!	!LO:TX:t=P:problem=tekst drugiej linijki zamazany na słowie Corona	!	!	!	!LO:TX:t=P:problem=kreska pseudotaktowa	!	!	!LO:TX:t=P:problem=kreska pseudotaktowa	!	!	!LO:TX:t=P:problem=kreska pseudotaktowa	!	!
1D	sa-	co-	1D	Sa-	Co-	.	1A	ſa-	Co-	1fn	ſa-	Co-	1dd	ſa-	Co-
!	!	!	!	!	!	!	!	!	!	!	!LO:LB:g=original	!	!	!	!
=46	=46	=46	=46	=46	=46	=46	=46	=46	=46	=46	=46	=46	=46	=46	=46
!LO:TX:t=P:problem=kreska pseudotaktowa	!	!	!LO:TX:a:t=P:problem=♭ above	!	!	!	!	!	!	!	!	!	!	!	!
0BB-X	-lu-	-ro-	0BB-X	-lu-	-ro-	.	0B-X	-lu-	-ro-	0g	-lu-	-ro-	0dd	-lu-	-ro-
!LO:TX:t=P:problem=kreska pseudotaktowa	!	!	!LO:TX:t=P:problem=kreska pseudotaktowa	!	!	!	!LO:TX:t=P:problem=kreska pseudotaktowa	!	!	!	!	!	!LO:TX:t=P:problem=kreska pseudotaktowa	!	!
1F#X	-tis	-na	1FF#X	-tis	-na	.	1A	-tis	-na	1a	-tis	-na	1dd	-tis	-na
!	!	!	!	!	!	!	!	!LO:LB:g=original	!	!	!	!	!	!LO:LB:g=original	!
=47	=47	=47	=47	=47	=47	=47	=47	=47	=47	=47	=47	=47	=47	=47	=47
!	!	!	!	!	!	!	!LO:TX:a:t=P:problem=- above	!	!	!	!	!	!	!	!
1G	Sig-	glo-	1GG	Sig-	glo-	.	1B-X	ſig-	glo-	0e	ſig-	glo-	0dd	ſig-	glo-
1.A	.	.	1.AA	.	.	.	1.A	.	.	.	.	.	.	.	.
.	.	.	.	.	.	.	.	.	.	1e	-ni-	-ri-	1cc#X	-ni-	-ri-
2AA/	-ni-	-ri-	2AA/	-ni-	-ri-	.	2A/	-ni-	-ri-	.	.	.	.	.	.
=48	=48	=48	=48	=48	=48	=48	=48-	=48	=48	=48	=48	=48	=48	=48	=48
!	!	!	!LO:TX:t=P:problem=podwójna kreska pseudotaktowa	!	!	!	!	!	!	!	!	!	!LO:TX:t=P:problem=podwójna fermata powyżej i poniżej	!	!
!LO:TX:t=P:problem=kreska pseudotaktowa	!	!	!LO:TX:t=P:problem=podwójna fermata powyżej i poniżej	!	!	!	!LO:TX:t=P:problem=podwójna kreska pseudotaktowa	!	!	!LO:TX:t=P:problem=podwójna kreska pseudotaktowa	!	!	!LO:TX:t=P:problem=podwójna kreska pseudotaktowa	!	!
0.D	-fer	-ae	0.D;	-fer	-ae	.	0.A	-fer	-ae	0.f#X	-fer	-ae.	0.dd;;	-fer	-ae
=49||	=49||	=49||	=49||	=49||	=49||	=49||	=49||	=49||	=49||	=49||	=49||	=49||	=49||	=49||	=49||
!LO:LB:g=original	!	!	!	!	!	!	!	!	!	!	!	!	!	!	!
*M3/1	*	*	*M3/1	*	*	*	*M3/1	*	*	*M3/1	*	*	*M3/1	*	*
*	*v:[5]	*	*	*v:5 	*	*	*	*v:5 	*	*	*v:5 	*	*	*v:5 	*
0D	Pa-	.	0D	Pa-	.	.	0A	Pa-	.	0f	Pa-	.	0dd	Pa-	.
!LO:TX:t=P:problem=kreska pseudotaktowa	!	!	!LO:TX:t=P:problem=kreska pseudotaktowa	!	!	!	!LO:TX:t=P:problem=kreska pseudotaktowa	!	!	!LO:TX:t=P:problem=kreska pseudotaktowa	!	!	!LO:TX:t=P:problem=kreska pseudotaktowa	!	!
1D	-tri	.	1D	-tri	.	.	1A	-tri	.	1f	-tri	.	1dd	-tri	.
=50	=50	=50	=50	=50	=50	=50	=50	=50	=50	=50	=50	=50	=50	=50	=50
1D	si-	.	1D	Si-	.	.	1d	ſi-	.	1f	ſi-	.	1dd	ſi-	.
1D	-mul-	.	1D	-mul-	.	.	1d	-mul-	.	1f	-mul-	.	1.a	-mul-	.
!	!	!	!LO:TX:t=P:problem=kreska pseudotaktowa	!	!	!	!	!	!	!	!	!	!	!	!
!LO:TX:t=P:problem=kreska pseudotaktowa	!	!	!LO:TX:a:t=P:problem=# above	!	!	!	!LO:TX:t=P:problem=kreska pseudotaktowa	!	!	!	!	!	!	!	!
*	*	*	*	*	*	*	*	*	*	*col	*	*	*	*	*
1C#X	-q(ue)	.	1C#X	-q(ue)	.	.	1e	-q(ue)	.	[1e	-q(ue)	.	.	.	.
!	!	!	!	!	!	!	!	!	!	!	!	!	!LO:TX:t=P:problem=kreska pseudotaktowa	!	!
.	.	.	.	.	.	.	.	.	.	.	.	.	2a\	-q(ue)	.
=51	=51	=51	=51	=51	=51	=51	=51	=51	=51	=51	=51	=51	=51	=51	=51
0D	Fi-	.	0D	Fi-	.	.	2f\	Fi-	.	1e]	.	.	0a	Fi-	.
.	.	.	.	.	.	.	2e\	.	.	.	.	.	.	.	.
.	.	.	.	.	.	.	2d\	.	.	1.f	Fi-	.	.	.	.
.	.	.	.	.	.	.	2c\	.	.	.	.	.	.	.	.
!LO:TX:t=P:problem=kreska pseudotaktowa	!	!	!LO:TX:t=P:problem=kreska pseudotaktowa	!	!	!	!	!	!	!	!	!	!LO:TX:t=P:problem=kreska pseudotaktowa	!	!
1D	-li-	.	1D	-li-	.	.	2d\	.	.	.	.	.	1b	-li-	.
!	!	!	!	!	!	!	!LO:TX:t=P:problem=kreska pseudotaktowa	!	!	!LO:TX:t=P:problem=kreska pseudotaktowa	!	!	!	!	!
.	.	.	.	.	.	.	2e\	-li-	.	2e\	-li-	.	.	.	.
*	*	*	*	*	*	*	*	*	*	*Xcol	*	*	*	*	*
=52	=52	=52	=52	=52	=52	=52	=52	=52	=52	=52	=52	=52	=52	=52	=52
0AA	-o	.	0AA	-o	.	.	0c,	-o	.	0e	-o	.	0cc	-o	.
!	!	!	!LO:TX:t=P:problem=kreska pseudotaktowa	!	!	!	!	!	!	!	!	!	!	!	!
!LO:TX:t=P:problem=kreska pseudotaktowa	!	!	!LO:TX:a:t=P:problem=# above	!	!	!	!LO:TX:t=P:problem=kreska pseudotaktowa	!	!	!LO:TX:t=P:problem=kreska pseudotaktowa	!	!	!LO:TX:t=P:problem=kreska pseudotaktowa	!	!
1GG#X	Ti-	.	1GG#X	Ti-	.	.	1e	Ti-	.	1e	Ti-	.	1b	ti-	.
=53	=53	=53	=53	=53	=53	=53	=53	=53	=53	=53	=53	=53	=53	=53	=53
1.AA	-bi-	.	1.AA	-bi-	.	.	1.e	-bi-	.	1.a	-bi-	.	1.dd	-bi-	.
2BB/	-(que)	.	2BB/	-q(ue)	.	.	2d\	-q(ue)	.	4a\	-q(ue)	.	2dd\	-q(ue)	.
.	.	.	.	.	.	.	.	.	.	4g\	.	.	.	.	.
!LO:TX:t=P:problem=kreska pseudotaktowa	!	!	!LO:TX:t=P:problem=kreska pseudotaktowa	!	!	!	!LO:TX:t=P:problem=kreska pseudotaktowa	!	!	!LO:TX:t=P:problem=kreska pseudotaktowa	!	!	!LO:TX:t=P:problem=kreska pseudotaktowa	!	!
1C	San-	.	1C	San-	.	.	1c	San-	.	1e	ſan-	.	1ee	ſan-	.
=54	=54	=54	=54	=54	=54	=54	=54	=54	=54	=54	=54	=54	=54	=54	=54
1D	-cte	.	1D	-cte	.	.	1c	-cte	.	1e	-cte	.	1a	-cte	.
1.E	Spi-	.	1.E	Spi-	.	.	1.Bn	Spi-	.	1.e	ſpi-	.	1.a	ſpi-	.
!LO:TX:t=P:problem=kreska pseudotaktowa	!	!	!LO:TX:t=P:problem=kreska pseudotaktowa	!	!	!	!LO:TX:t=P:problem=kreska pseudotaktowa	!	!	!LO:TX:t=P:problem=kreska pseudotaktowa	!	!	!LO:TX:t=P:problem=kreska pseudotaktowa	!	!
2E\	-ri-	.	2E\	-ri-	.	.	2B\	-ri-	.	2e\	-ri-	.	2g#X/	-ri-	.
=55	=55	=55	=55	=55	=55	=55	=55	=55	=55	=55	=55	=55	=55	=55	=55
!LO:TX:t=P:problem=kreska pseudotaktowa	!	!	!LO:TX:t=P:problem=kreska pseudotaktowa	!	!	!	!LO:TX:t=P:problem=kreska pseudotaktowa	!	!	!LO:TX:t=P:problem=kreska pseudotaktowa	!	!	!LO:TX:t=P:problem=kreska pseudotaktowa	!	!
0.AA	-t(us)	.	0.AA	-t(us)	.	.	0.A	-t(us)	.	0.e	-t(us)	.	0.a	-t(us)	.
*	*	*	*custos:A	*	*	*	*	*	*	*	*	*	*	*	*
=56	=56	=56	=56	=56	=56	=56	=56	=56	=56	=56	=56	=56	=56	=56	=56
!	!	!	!LO:PB:g=original	!	!	!	!	!	!	!	!	!	!	!	!
1A	Si-	.	1A	ſi-	.	.	1c	ſi-	.	1e	Si-	.	1a	ſi-	.
1F	-cut	.	1F	-cut	.	.	1f	-cut	.	1a	-cut	.	1a	-cut	.
!LO:TX:t=P:problem=kreska pseudotaktowa	!	!	!LO:TX:t=P:problem=kreska pseudotaktowa	!	!	!	!LO:TX:t=P:problem=kreska pseudotaktowa	!	!	!LO:TX:t=P:problem=kreska pseudotaktowa	!	!	!LO:TX:t=P:problem=kreska pseudotaktowa	!	!
1G	fu-	.	1G	fu-	.	.	1d	fu-	.	1g	fu-	.	1b	fu-	.
=57	=57	=57	=57	=57	=57	=57	=57	=57	=57	=57	=57	=57	=57	=57	=57
1.C	-it	.	1.C	-it	.	.	2e\	-it	.	1.g	-it	.	1.cc	-it	.
.	.	.	.	.	.	.	2d\	.	.	.	.	.	.	.	.
.	.	.	.	.	.	.	2e\	.	.	.	.	.	.	.	.
2D/	.	.	2D/	.	.	.	2f\	.	.	2f\	.	.	4b\	.	.
.	.	.	.	.	.	.	.	.	.	.	.	.	4a\	.	.
!LO:TX:t=P:problem=kreska pseudotaktowa	!	!	!LO:TX:t=P:problem=kreska pseudotaktowa	!	!	!	!LO:TX:t=P:problem=kreska pseudotaktowa	!	!	!LO:TX:t=P:problem=kreska pseudotaktowa	!	!	!LO:TX:t=P:problem=kreska pseudotaktowa	!	!
1E	sic	.	1E	.	.	.	1g	.	.	1e	.	.	1g	.	.
=58	=58	=58	=58	=58	=58	=58	=58	=58	=58	=58	=58	=58	=58	=58	=58
*	*	*	*	*	*	*	*custos:d	*	*	*	*	*	*	*	*
!LO:LB:g=original	!	!	!	!	!	!	!	!	!	!	!	!	!	!	!
1F	ju-	.	1F	ſit	.	.	1d	ſit	.	1a	ſit	.	1cc	ſit	.
!	!	!	!	!	!	!	!	!LO:PB:g=original	!	!	!	!	!	!	!
1.G	.	.	1.G	ju-	.	.	1.d	ju-	.	1.g	iu-	.	1.cc	iu-	.
*	*	*	*	*	*	*	*	*	*	*custos:g	*	*	*	*	*
!LO:TX:t=P:problem=kreska pseudotaktowa	!	!	!LO:TX:t=P:problem=kreska pseudotaktowa	!	!	!	!LO:TX:t=P:problem=kreska pseudotaktowa	!	!	!LO:TX:t=P:problem=kreska pseudotaktowa	!	!	!LO:TX:t=P:problem=kreska pseudotaktowa	!	!
!	!	!	!	!	!	!	!	!	!	!	!	!	!LO:N:acc=#	!	!
2GG/	-gi-	.	2G\	-gi-	.	.	2d\	-gi-	.	2g\	-gi-	.	2bnX\	-gi-	.
!	!	!	!	!	!	!	!	!	!	!	!LO:PB:g=original	!	!	!	!
=59	=59	=59	=59	=59	=59	=59	=59	=59	=59	=59	=59	=59	=59	=59	=59
0C,	-ter	.	0C	-ter	.	.	0c	-ter	.	0g	-ter	.	0cc	-ter	.
!	!	!	!	!	!	!	!	!	!	!	!	!	!	!LO:PB:g=original	!
!LO:TX:t=P:problem=kreska pseudotaktowa	!	!	!LO:TX:t=P:problem=kreska pseudotaktowa	!	!	!	!LO:TX:t=P:problem=kreska pseudotaktowa	!	!	!LO:TX:t=P:problem=kreska pseudotaktowa	!	!	!LO:TX:t=P:problem=kreska pseudotaktowa	!	!
1C	sae-	.	1C	ſe-	.	.	1e	ſe-	.	1e	ſe-	.	1cc	ſe-	.
=60	=60	=60	=60	=60	=60	=60	=60	=60	=60	=60	=60	=60	=60	=60	=60
!	!	!	!LO:TX:a:t=P:problem=# above	!	!	!	!	!	!	!	!	!	!	!	!
0G#X	-clum	.	0GG#X	-clu(m)	.	.	1e	-cl(um)	.	0e	clu(m)	.	0b	-clu(m)	.
.	.	.	.	.	.	.	2B\	per	.	.	.	.	.	.	.
.	.	.	.	.	.	.	2c\	.	.	.	.	.	.	.	.
!LO:TX:t=P:problem=kreska pseudotaktowa	!	!	!LO:TX:t=P:problem=kreska pseudotaktowa	!	!	!	!	!	!	!LO:TX:t=P:problem=kreska pseudotaktowa	!	!	!LO:TX:t=P:problem=kreska pseudotaktowa	!	!
1G#	per	.	1GG#	per	.	.	2d\	.	.	1e	per	.	1b	per	.
!	!	!	!	!	!	!	!LO:TX:t=P:problem=kreska pseudotaktowa	!	!	!	!	!	!	!	!
.	.	.	.	.	.	.	2e\	.	.	.	.	.	.	.	.
=61	=61	=61	=61	=61	=61	=61	=61	=61	=61	=61	=61	=61	=61	=61	=61
0A	o-	.	0AA	o-	.	.	0c#X	o-	.	0e	o-	.	0a	o-	.
!LO:TX:t=P:problem=kreska pseudotaktowa	!	!	!LO:TX:t=P:problem=kreska pseudotaktowa	!	!	!	!LO:TX:t=P:problem=kreska pseudotaktowa	!	!	!LO:TX:t=P:problem=kreska pseudotaktowa	!	!	!LO:TX:t=P:problem=kreska pseudotaktowa	!	!
1A	-mne	.	1AA	-mne	.	.	1c#	-mne	.	1e	-mne	.	1a	-mne	.
=62	=62	=62	=62	=62	=62	=62	=62	=62	=62	=62	=62	=62	=62	=62	=62
*	*ij	*	*	*ij	*	*	*	*ij	*	*	*	*	*	*ij	*
1F	sae-	.	1FF	ſe-	.	.	1f	ſe-	.	1a	ſe-	.	1dd	ſe-	.
1G	-clum	.	1GG	-clu(m)	.	.	1e	-cl(um)	.	1g	clu(m)	.	1b-X	-clu(m)	.
!LO:TX:t=P:problem=kreska pseudotaktowa	!	!	!LO:TX:t=P:problem=kreska pseudotaktowa	!	!	!	!LO:TX:t=P:problem=kreska pseudotaktowa	!	!	!LO:TX:t=P:problem=kreska pseudotaktowa	!	!	!	!	!
1A	per	.	1AA	per	.	.	1c#X	per	.	1e	per	.	(2a\	per	.
!	!	!	!	!	!	!	!	!	!	!	!	!	!LO:TX:t=P:problem=kreska pseudotaktowa	!	!
.	.	.	.	.	.	.	.	.	.	.	.	.	2g/)	.	.
=63	=63	=63	=63	=63	=63	=63	=63	=63	=63	=63	=63	=63	=63	=63	=63
!	!	!	!LO:TX:a:t=P:problem=♭ above	!	!	!	!	!	!	!	!	!	!	!	!
2B-X\	o-	.	1.BB-X	o-	.	.	1.d	o-	.	1.d	.	.	1.f	o-	.
2BB-X/	.	.	.	.	.	.	.	.	.	.	.	.	.	.	.
1C	.	.	.	.	.	.	.	.	.	.	.	.	.	.	.
.	.	.	2C/	.	.	.	4c\	.	.	2e\	om-	.	2e/	.	.
.	.	.	.	.	.	.	4B\	.	.	.	.	.	.	.	.
!LO:TX:t=P:problem=kreska pseudotaktowa	!	!	!LO:TX:t=P:problem=kreska pseudotaktowa	!	!	!	!LO:TX:t=P:problem=kreska pseudotaktowa	!	!	!LO:TX:t=P:problem=kreska pseudotaktowa	!	!	!LO:TX:t=P:problem=kreska pseudotaktowa	!	!
1D	-mne	.	1D	.	.	.	1A	.	.	1f	.	.	1d	.	.
*	*Xij	*	*	*	*	*	*	*	*	*	*	*	*	*	*
=64	=64	=64	=64	=64	=64	=64	=64	=64	=64	=64	=64	=64	=64	=64	=64
1F	glo-	.	1FF	-mne	.	.	1f	-mne	.	1d	-ne	.	1a	-mne	.
*	*	*	*	*Xij	*	*	*	*Xij	*	*	*	*	*	*Xij	*
1.A	.	.	1.AA	glo-	.	.	1.e	glo-	.	1.d	glo-	.	1.a	glo-	.
!	!	!	!LO:TX:t=P:problem=kreska pseudotaktowa	!	!	!	!LO:TX:t=P:problem=kreska pseudotaktowa	!	!	!LO:TX:a:t=P:problem=# above	!	!	!LO:TX:t=P:problem=kreska pseudotaktowa	!	!
2AA/	-ri-	.	2AA/	-ri-	.	.	2e\	-ri-	.	2c#X\	-ri-	.	2a\	-ri-	.
=65-	=65	=65	=65	=65	=65	=65	=65	=65	=65	=65	=65	=65	=65	=65	=65
!LO:TX:t=P:problem=kreska pseudotaktowa	!	!	!LO:TX:t=P:problem= podwójna kreska pseudotaktowa	!	!	!	!LO:TX:t=P:problem= podwójna kreska pseudotaktowa	!	!	!LO:TX:t=P:problem= podwójna kreska pseudotaktowa	!	!	!LO:TX:t=P:problem= podwójna kreska pseudotaktowa	!	!
0.D	-a	.	0.D	-a	.	.	0.d	-a	.	0.d	-a	.	0.a	-a	.
=66||	=66||	=66||	=66||	=66||	=66||	=66||	=66||	=66||	=66||	=66||	=66||	=66||	=66||	=66||	=66||
0.G	A-	.	0.GG	a-	.	.	0.B-X	A-	.	0.d	A-	.	0.g	A-	.
=67-	=67	=67	=67-	=67	=67	=67	=67-	=67	=67	=67-	=67	=67	=67-	=67	=67
!LO:N:vis=00.	!	!	!LO:TX:t=P:problem=fermata podwójna powyżej i poniżej	!	!	!	!LO:TX:t=P:problem=fermata podwójna powyżej i poniżej	!	!	!LO:TX:t=P:problem=fermata podwójna powyżej i poniżej	!	!	!LO:TX:t=P:problem=fermata podwójna powyżej i poniżej	!	!
0.D;	-men.	.	0.D;;	-men	.	.	0.A;;	-men.	.	0.d;;	-men.	.	0.f#X;;	-men.	.
==	==	==	==	==	==	==	==	==	==	==	==	==	==	==	==
*-	*-	*-	*-	*-	*-	*-	*-	*-	*-	*-	*-	*-	*-	*-	*-
!!!system-decoration: [(s1,s2,s3,s4,s5)]
!!!ENC: Tomasz Grochalski
!!!END: 2021-03-16
